X: 1082
T: Hâb-gâh-ı Yâre Girdim
C: Giriftzen Asım Bey
O: Turkey
F: http://compmusic.upf.edu/node/140
N: rast--sarki--musemmen--hab-gahi--giriftzen_asim_bey
N: makam= rast
N: form= sarki
N: usul= musemmen = 8/8
M: 8/8
L: 1/16
K: C _1/4B ^f  
Q: 1/4=132
%%MIDI tuningsystem comma53
B4 ABAG FEDE FGAB  | c4 A2B2 c2d4z2  | \
w:  ARANAĞME  |   | 
d4 c2B4g4a2  | 
w:   | 
f4 d2eg fed4z2  | d4 a2g2 =fed4e2  | \
w:   |   | 
c4 e2de dcB4z2  | 
w:   | 
G4 A2B2 c2e2 d2c2  | B4 Azdc BAG4z2  | \
w:   |   | 
B4 ABAG FEDE FGAB  | 
w:  ARANAĞME  | 
c4 A2B2 c2d4z2  | d4 c2B4g4a2  | f4 d2eg fed4z2  | \
w:   |   |   | 
d4 a2g2 =fed4e2  | 
w:   | 
c4 e2de dcB4z2  | G4 A2B2 c2e2 d2c2  | \
w:   |   | 
B4 Azdc BAG4z2  | 
w:   | 
G6G4B6  | d4 cBcd edd6  | c4 d2e2 d2g2 =f2e2  | \
w:  Hâb- gâh_ ı   |  yâ re  *  gir *  *  *  dim   |  arz_ i çin  *  ah  | 
d4 B2dc B^AB6  | 
w:  va li mi    | 
d4 cBdc BAG6  | G6G4B6  | d4 cBcd edd6  | \
w:  SAZ  |  Hâb- gâh_ ı   |  yâ re  *  gir *  *  *  dim   | 
c4 d2e2 d2g2 =f2e2  | 
w:  arz_ i çin  *  ah  | 
d4 B2dc B^AB6  | d4 cBdc B^AB6  | c4 d2e2 d2g2 =f2e2  | 
w:  va li mi    |  SAZ  |  Bir  pe ri *  şan   | 
d4 cBBA BAA6  | G4 A2B2 c2e2 d2c2  | \
w:  ha li *  ni  *  *  *  gör  |  düm  u nut *  tum   | 
B3A AGG4GA Bcd2  | 
w:  ha *  li *  mi   SAZ  | 
c4 d2e2 d2g2 =f2e2  | d4 cBBA BAA6  | \
w:  Bir  pe ri *  şan   |  ha li *  ni  *  *  *  gör  | 
G4 A2B2 c2e2 d2c2  | 
w:  düm  u nut *  tum   | 
B3A AGG4gf efg2  | gfef g2g4g6  | a4 gfag fed6  | 
w:  ha *  li *  mi   SAZ  |  Sa *  *  *  ki ten  ic  |  ra  e *  der *  *  *  ken   | 
e4 f2d4e2 f2g2  | b3a agg4ga bc'd'2  | \
w:  dî de  eşk_ i   |  â *  li *  mi   SAZ  | 
d'4 c'bd'c' bag6  | 
w:   | 
d4 e2f2 g2a2 g2=f2  | e4 edd2 edd6  | \
w:  Leb le rin *  de   |  si ne *  sin *  *  de   | 
c4 d2e2 d2g2 =f2e2  | 
w:  giz le nen  *  â  | 
d4 B2dc B^AB6  | d4 cBdc B^AB6  | c4 d2e2 d2g2 =f2e2  | 
w:  mâ li mi    |  SAZ  |  Bir  pe ri *  şan   | 
d4 cBBA BAA6  | G4 A2B2 c2e2 d2c2  | \
w:  ha li *  ni  *  *  *  gör  |  düm  u nut *  tum   | 
B3A AGG4GA Bcd2  | 
w:  ha *  li *  mi   SAZ  | 
c4 d2e2 d2g2 =f2e2  | d4 cBBA BAA6  | \
w:  Bir  pe ri *  şan   |  ha li *  ni  *  *  *  gör  | 
G4 A2B2 c2e2 d2c2  | 
w:  düm  u nut *  tum   | 
B3A AGG4GF EFG2  | |


